svg/fluentui-system-icons/ic_fluent_call_forward_28_regular.svg

<svg width="28" height="28" viewBox="0 0 28 28" fill="none" xmlns="http://www.w3.org/2000/svg">
<path d="M13.7771 2.82087C11.5011 1.5032 8.36077 1.59671 6.88454 4.15615C5.66436 6.27166 4.5 9.47992 4.5 14.0008C4.5 18.5216 5.66436 21.7299 6.88455 23.8454C8.36078 26.4048 11.5011 26.4983 13.7771 25.1806L13.9184 25.0988C14.9158 24.5214 15.4473 23.3832 15.2499 22.2477L14.8661 20.041C14.5855 18.4276 13.2904 17.1829 11.6672 16.9664L10.6244 16.8274C10.5291 16.8147 10.4914 16.7645 10.482 16.7409C9.86786 15.1907 9.71001 12.9606 10.2585 11.4646C10.2604 11.4595 10.2652 11.4492 10.2826 11.4357C10.3016 11.4208 10.3333 11.4045 10.3763 11.3964L11.8421 11.1216C13.3802 10.8332 14.5775 9.62004 14.8456 8.07832L15.2499 5.75377C15.4473 4.61828 14.9158 3.48012 13.9184 2.90266L13.7771 2.82087ZM8.1839 4.90559C9.09281 3.32975 11.1701 3.04483 13.0256 4.11901L13.1668 4.2008C13.6202 4.46328 13.8618 4.98063 13.772 5.49676L13.3678 7.82131C13.2069 8.74634 12.4885 9.47423 11.5657 9.64726L10.0998 9.92211C9.57908 10.0198 9.06404 10.3648 8.85013 10.9483C8.14825 12.8627 8.3691 15.4802 9.08748 17.2934C9.32233 17.8862 9.86433 18.2393 10.4262 18.3142L11.4689 18.4533C12.4429 18.5831 13.2199 19.33 13.3883 20.298L13.772 22.5047C13.8618 23.0209 13.6202 23.5382 13.1668 23.8007L13.0255 23.8825C11.1701 24.9567 9.09282 24.6718 8.1839 23.0959C7.09112 21.2013 6 18.2506 6 14.0008C6 9.75098 7.09112 6.80022 8.1839 4.90559ZM19.7803 8.7204C19.4874 8.42751 19.0126 8.42751 18.7197 8.7204C18.4268 9.0133 18.4268 9.48817 18.7197 9.78106L21.9393 13.0007H13.75C13.3358 13.0007 13 13.3365 13 13.7507C13 14.1649 13.3358 14.5007 13.75 14.5007H21.9393L18.7197 17.7204C18.4268 18.0133 18.4268 18.4882 18.7197 18.7811C19.0126 19.074 19.4874 19.074 19.7803 18.7811L24.2803 14.2811C24.5732 13.9882 24.5732 13.5133 24.2803 13.2204L19.7803 8.7204Z" fill="#212121"/>
</svg>

<svg xmlns="http://www.w3.org/2000/svg" width="28" height="28"><path d="M13.777 2.82c-2.276-1.317-5.416-1.223-6.892 1.336C5.665 6.272 4.5 9.48 4.5 14.001c0 4.52 1.164 7.729 2.385 9.844 1.476 2.56 4.616 2.653 6.892 1.336l.141-.082a2.75 2.75 0 0 0 1.332-2.851l-.384-2.207a3.75 3.75 0 0 0-3.199-3.075l-1.043-.139c-.095-.012-.133-.063-.142-.086-.614-1.55-.772-3.78-.223-5.276a.066.066 0 0 1 .024-.03.22.22 0 0 1 .093-.039l1.466-.274a3.75 3.75 0 0 0 3.004-3.044l.404-2.324a2.75 2.75 0 0 0-1.332-2.851l-.14-.082ZM8.184 4.907c.909-1.576 2.986-1.861 4.842-.787l.14.082c.454.262.696.78.606 1.296l-.404 2.324a2.25 2.25 0 0 1-1.802 1.826l-1.466.275c-.52.098-1.036.443-1.25 1.026-.702 1.915-.48 4.532.237 6.345.235.593.777.946 1.34 1.021l1.042.14a2.25 2.25 0 0 1 1.92 1.844l.383 2.207a1.25 1.25 0 0 1-.605 1.296l-.142.082c-1.855 1.074-3.932.789-4.841-.787C7.09 21.2 6 18.25 6 14c0-4.25 1.091-7.2 2.184-9.095ZM19.78 8.72a.75.75 0 1 0-1.06 1.061l3.22 3.22h-8.19a.75.75 0 0 0 0 1.5h8.19l-3.22 3.22a.75.75 0 0 0 1.06 1.06l4.5-4.5a.75.75 0 0 0 0-1.06l-4.5-4.5Z"/></svg>
